tipitek/img/app-card-icon-3.svg

<svg width="56" height="56" viewBox="0 0 56 56" fill="none" xmlns="http://www.w3.org/2000/svg">
<g clip-path="url(#clip0_971_4156)">
<path d="M41.9059 55.1797H3.06641C1.85825 55.1797 0.878906 54.2003 0.878906 52.9922V3.00781C0.878906 1.79966 1.85825 0.820312 3.06641 0.820312H32.6272L41.9058 10.0989V55.1797H41.9059Z" fill="#F9F7F8"/>
<path d="M32.6289 0.820312V7.91142C32.6289 9.11958 33.6082 10.0989 34.8164 10.0989H41.9075L32.6289 0.820312Z" fill="#C2BCE0"/>
<path d="M7.98047 10.7734H12.479V23.2451H7.98047V10.7734Z" fill="#00D8C0"/>
<path d="M15.4219 13.9453H19.9204V23.2451H15.4219V13.9453Z" fill="#FE93D3"/>
<path d="M22.8633 7.61981H27.3618V23.2451H22.8633V7.61981Z" fill="#9BE69D"/>
<path d="M30.3047 16.8073H34.8032V23.2451H30.3047V16.8073Z" fill="#FFE589"/>
<path d="M7.98047 32.421H21.393V36.5312H7.98047V32.421Z" fill="#FFCD55"/>
<path d="M21.4023 32.421H34.8149V36.5312H21.4023V32.421Z" fill="#ACA6D6"/>
<path d="M46.5378 42.9354C51.2553 42.9354 55.0796 39.1053 55.0796 34.3806C55.0796 29.6558 51.2553 25.8257 46.5378 25.8257C41.8204 25.8257 37.9961 29.6558 37.9961 34.3806C37.9961 39.1053 41.8204 42.9354 46.5378 42.9354Z" fill="#FFCD55"/>
<path d="M46.5391 25.8257C45.7827 25.8257 45.0499 25.9252 44.3516 26.1101C48.0091 27.0779 50.7058 30.4133 50.7058 34.3806C50.7058 38.3478 48.009 41.6832 44.3516 42.6511C45.0654 42.84 45.8007 42.9356 46.5391 42.9354C51.2565 42.9354 55.0808 39.1052 55.0808 34.3806C55.0808 29.6559 51.2565 25.8257 46.5391 25.8257Z" fill="#FFBE46"/>
<path d="M46.5402 39.4049C43.7768 39.4049 41.5287 37.1509 41.5287 34.3804C41.5287 31.6098 43.7768 29.3559 46.5402 29.3559C49.3036 29.3559 51.5517 31.6099 51.5517 34.3804C51.5517 37.1508 49.3035 39.4049 46.5402 39.4049ZM53.6976 47.0451H39.3828C38.5975 47.0451 37.9609 46.4086 37.9609 45.6232V44.3998C37.9609 43.6145 38.5975 42.9779 39.3828 42.9779H53.6975C54.4828 42.9779 55.1194 43.6145 55.1194 44.3998V45.6232C55.1195 46.4086 54.4828 47.0451 53.6976 47.0451Z" fill="#FFE589"/>
<path d="M53.6976 51.1125H39.3828C38.5975 51.1125 37.9609 50.4759 37.9609 49.6906V48.4671C37.9609 47.6818 38.5975 47.0453 39.3828 47.0453H53.6975C54.4828 47.0453 55.1194 47.6818 55.1194 48.4671V49.6906C55.1195 50.4758 54.4828 51.1125 53.6976 51.1125Z" fill="#FFCD55"/>
<path d="M53.6953 47.0452H49.3203C50.1056 47.0452 50.7422 47.6817 50.7422 48.467V49.6906C50.7422 50.4759 50.1056 51.1125 49.3203 51.1125H53.6953C54.4806 51.1125 55.1172 50.4759 55.1172 49.6906V48.467C55.1172 47.6817 54.4805 47.0452 53.6953 47.0452Z" fill="#FFBE46"/>
<path d="M53.6976 55.1797H39.3828C38.5975 55.1797 37.9609 54.5431 37.9609 53.7578V52.5343C37.9609 51.749 38.5975 51.1125 39.3828 51.1125H53.6975C54.4828 51.1125 55.1194 51.749 55.1194 52.5343V53.7578C55.1195 54.5431 54.4828 55.1797 53.6976 55.1797Z" fill="#FFE589"/>
<path d="M53.6953 42.9778H49.3203C50.1056 42.9778 50.7422 43.6143 50.7422 44.3997V45.6232C50.7422 46.4086 50.1056 47.0451 49.3203 47.0451H53.6953C54.4806 47.0451 55.1172 46.4086 55.1172 45.6232V44.3997C55.1172 43.6145 54.4805 42.9778 53.6953 42.9778ZM53.6953 51.1123H49.3203C50.1056 51.1123 50.7422 51.7489 50.7422 52.5342V53.7578C50.7422 54.5431 50.1056 55.1797 49.3203 55.1797H53.6953C54.4806 55.1797 55.1172 54.5431 55.1172 53.7578V52.5342C55.1172 51.749 54.4805 51.1123 53.6953 51.1123Z" fill="#FFD86D"/>
<path d="M0.878906 7.61983V3.00781C0.878906 1.79966 1.85825 0.820312 3.06641 0.820312H32.6272L41.9058 10.0989V27.1923M39.3811 55.1797H3.06641C1.85825 55.1797 0.878906 54.2003 0.878906 52.9922V11.2109" stroke="black" stroke-width="1.64062" stroke-miterlimit="10" stroke-linecap="round" stroke-linejoin="round"/>
<path d="M5.8125 26.7531H36.9745M21.3935 36.5312V32.421H7.98097V36.5312H21.3935ZM21.3935 36.5312V49.997M9.67661 40.6415H16.8802M9.67661 44.7518H16.8802M9.67661 48.862H16.8802M25.9069 40.6415H33.1104M25.9069 44.7518H33.1104M25.9069 48.862H33.1104M32.6283 0.820312V7.91142C32.6283 9.11958 33.6076 10.0989 34.8158 10.0989H41.9069L32.6283 0.820312ZM7.98097 10.7734H12.4795V23.2451H7.98097V10.7734ZM15.4232 13.9453H19.9217V23.2451H15.4232V13.9453ZM22.8654 7.61983H27.3639V23.2451H22.8654V7.61983ZM30.3077 16.8073H34.8062V23.2451H30.3077V16.8073ZM21.4025 32.421H34.815V36.5312H21.4025V32.421ZM46.5396 25.8256C41.8221 25.8256 37.9978 29.6558 37.9978 34.3805C37.9978 39.1052 41.8221 42.9354 46.5396 42.9354C51.257 42.9354 55.0813 39.1052 55.0813 34.3805C55.0813 29.6558 51.257 25.8256 46.5396 25.8256Z" stroke="black" stroke-width="1.64062" stroke-miterlimit="10" stroke-linecap="round" stroke-linejoin="round"/>
<path d="M51.0716 36.5237C51.3883 35.8536 51.5523 35.1215 51.5515 34.3804C51.5515 31.6099 49.3035 29.3559 46.5401 29.3559C43.7767 29.3559 41.5286 31.6099 41.5286 34.3804C41.5286 37.1508 43.7767 39.4049 46.5401 39.4049C47.3292 39.4054 48.1071 39.218 48.8094 38.8581M39.3828 47.0451H53.6976C54.4828 47.0451 55.1195 46.4086 55.1194 45.6232V44.3998C55.1194 43.6145 54.4828 42.9779 53.6975 42.9779H39.3828C38.5975 42.9779 37.9609 43.6145 37.9609 44.3998V45.6232C37.9609 46.4086 38.5975 47.0451 39.3828 47.0451ZM39.3828 47.0451C38.5975 47.0451 37.9609 47.6818 37.9609 48.4671V49.6906C37.9609 50.4759 38.5975 51.1124 39.3828 51.1124M39.3828 47.0451L53.6975 47.0452C54.4828 47.0452 55.1194 47.6818 55.1194 48.4671V49.6906C55.1195 50.4758 54.4828 51.1124 53.6976 51.1124H39.3828M39.3828 51.1124C38.5975 51.1124 37.9609 51.749 37.9609 52.5343V53.7578C37.9609 54.5431 38.5975 55.1797 39.3828 55.1797H53.6976C54.4828 55.1797 55.1195 54.5431 55.1194 53.7578V52.5343C55.1194 51.749 54.4828 51.1124 53.6975 51.1124H39.3828Z" stroke="black" stroke-width="1.64062" stroke-miterlimit="10" stroke-linecap="round" stroke-linejoin="round"/>
</g>
<defs>
<clipPath id="clip0_971_4156">
<rect width="56" height="56" fill="white"/>
</clipPath>
</defs>
</svg>

<svg width="56" height="56" fill="none" xmlns="http://www.w3.org/2000/svg"><g clip-path="url(#clip0_971_4156)"><path d="M41.906 55.18H3.066A2.187 2.187 0 0 1 .88 52.992V3.008C.879 1.8 1.859.82 3.066.82h29.561l9.279 9.279v45.08z" fill="#F9F7F8"/><path d="M32.629.82v7.091c0 1.209.98 2.188 2.187 2.188h7.091L32.63.82z" fill="#C2BCE0"/><path d="M7.98 10.773h4.499v12.472H7.98V10.773z" fill="#00D8C0"/><path d="M15.422 13.945h4.498v9.3h-4.498v-9.3z" fill="#FE93D3"/><path d="M22.863 7.62h4.499v15.625h-4.499V7.62z" fill="#9BE69D"/><path d="M30.305 16.807h4.498v6.438h-4.498v-6.438z" fill="#FFE589"/><path d="M7.98 32.421h13.413v4.11H7.98v-4.11z" fill="#FFCD55"/><path d="M21.402 32.421h13.413v4.11H21.402v-4.11z" fill="#ACA6D6"/><path d="M46.538 42.935c4.717 0 8.542-3.83 8.542-8.554 0-4.725-3.825-8.555-8.542-8.555-4.718 0-8.542 3.83-8.542 8.555 0 4.724 3.824 8.554 8.542 8.554z" fill="#FFCD55"/><path d="M46.54 25.826c-.757 0-1.49.1-2.188.284a8.555 8.555 0 0 1 6.354 8.27 8.555 8.555 0 0 1-6.354 8.271 8.542 8.542 0 0 0 10.729-8.27c0-4.725-3.825-8.555-8.542-8.555z" fill="#FFBE46"/><path d="M46.54 39.405c-2.763 0-5.011-2.254-5.011-5.025 0-2.77 2.248-5.024 5.011-5.024 2.764 0 5.012 2.254 5.012 5.024s-2.248 5.025-5.012 5.025zm7.158 7.64H39.383a1.422 1.422 0 0 1-1.422-1.422V44.4c0-.785.636-1.422 1.422-1.422h14.314c.786 0 1.422.636 1.422 1.422v1.223c0 .786-.636 1.422-1.421 1.422z" fill="#FFE589"/><path d="M53.698 51.112H39.383a1.422 1.422 0 0 1-1.422-1.421v-1.224c0-.785.636-1.422 1.422-1.422h14.314c.786 0 1.422.637 1.422 1.422v1.224c0 .785-.636 1.421-1.421 1.421z" fill="#FFCD55"/><path d="M53.695 47.045H49.32c.786 0 1.422.637 1.422 1.422v1.224c0 .785-.636 1.421-1.422 1.421h4.375c.786 0 1.422-.636 1.422-1.421v-1.224c0-.785-.636-1.422-1.422-1.422z" fill="#FFBE46"/><path d="M53.698 55.18H39.383a1.422 1.422 0 0 1-1.422-1.422v-1.224c0-.785.636-1.422 1.422-1.422h14.314c.786 0 1.422.637 1.422 1.422v1.224c0 .785-.636 1.422-1.421 1.422z" fill="#FFE589"/><path d="M53.695 42.978H49.32c.786 0 1.422.636 1.422 1.422v1.223c0 .786-.636 1.422-1.422 1.422h4.375c.786 0 1.422-.636 1.422-1.422V44.4c0-.785-.636-1.422-1.422-1.422zm0 8.134H49.32c.786 0 1.422.637 1.422 1.422v1.224c0 .785-.636 1.422-1.422 1.422h4.375c.786 0 1.422-.637 1.422-1.422v-1.224c0-.785-.636-1.422-1.422-1.422z" fill="#FFD86D"/><path d="M.879 7.62V3.008C.879 1.8 1.859.82 3.066.82h29.561l9.279 9.279v17.093M39.38 55.18H3.066A2.187 2.187 0 0 1 .88 52.992V11.211" stroke="#000" stroke-width="1.641" stroke-miterlimit="10" stroke-linecap="round" stroke-linejoin="round"/><path d="M5.813 26.753h31.162m-15.582 9.778v-4.11H7.981v4.11h13.412zm0 0v13.466M9.678 40.642h7.203m-7.203 4.11h7.203m-7.203 4.11h7.203m9.027-8.22h7.203m-7.203 4.11h7.203m-7.203 4.11h7.203M32.628.82v7.091c0 1.209.98 2.188 2.188 2.188h7.09L32.629.82zM7.981 10.773h4.498v12.472H7.981V10.773zm7.442 3.172h4.499v9.3h-4.499v-9.3zm7.442-6.325h4.499v15.625h-4.499V7.62zm7.443 9.187h4.498v6.438h-4.498v-6.438zm-8.905 15.614h13.412v4.11H21.403v-4.11zm25.137-6.595c-4.718 0-8.542 3.83-8.542 8.554 0 4.725 3.824 8.555 8.542 8.555 4.717 0 8.541-3.83 8.541-8.555 0-4.724-3.824-8.554-8.541-8.554z" stroke="#000" stroke-width="1.641" stroke-miterlimit="10" stroke-linecap="round" stroke-linejoin="round"/><path d="M51.072 36.524c.316-.67.48-1.403.48-2.144 0-2.77-2.248-5.024-5.012-5.024-2.763 0-5.011 2.254-5.011 5.024s2.248 5.025 5.011 5.025c.79 0 1.567-.187 2.27-.547m-9.427 8.187h14.315c.785 0 1.422-.636 1.421-1.422V44.4c0-.785-.636-1.422-1.422-1.422H39.383c-.786 0-1.422.636-1.422 1.422v1.223c0 .786.636 1.422 1.422 1.422zm0 0c-.786 0-1.422.637-1.422 1.422v1.224c0 .785.636 1.421 1.422 1.421m0-4.067h14.314c.786 0 1.422.637 1.422 1.422v1.224c0 .785-.636 1.421-1.421 1.421H39.383m0 0c-.786 0-1.422.637-1.422 1.422v1.224c0 .785.636 1.422 1.422 1.422h14.315c.785 0 1.422-.637 1.421-1.422v-1.224c0-.785-.636-1.422-1.422-1.422H39.383z" stroke="#000" stroke-width="1.641" stroke-miterlimit="10" stroke-linecap="round" stroke-linejoin="round"/></g><defs><clipPath id="clip0_971_4156"><path fill="#fff" d="M0 0h56v56H0z"/></clipPath></defs></svg>
